X: 22981
T: Lasses Of Ancrum
R: strathspey
M: 4/4
K: Dminor
c|Ac Ac/d/ ddef g/f/e/d/ ce|
Ac Ad2 c/A/|{A} B>GA>F D/D/ DD||
c|f>g a/g/f/e/ fdec|A>B AGF>G Ac|
f>g a/g/f/e/ fd e c/A/|{A}B>GA>F D/D/ DDc|
f>g a/g/f/e/ fdec|A>B AGF>G Ag|
a>fg>e f>de>c|{A} B>GA>F D/D/ DD||

